X: 180
T: Lads of Lexington [reel]
N: 120179
N: revised 1/07
C: BB
R: reel
Q: 1/8=380
M: 4/4
L: 1/8
K: Ador
"Am"EAAB cdea|"Am"cdea "G"gdBG|"Am"EA^GA cdea|"G"gedB GBdB|
"Am"EAAB cdea|"Em"gede "G"g3 f|"Am"ea^ga "Em"ba=ge|"G"dBgB "Am"cA A2 :|
"A"^cdef "G"gfed|"A"^cee^g ae e2|"A"^cdec "Bm7"dBAF|"G"GBBA GB B2 |
"A"A2 ^ce "G"gfed|"A"^ceae "G"g3 a|"A"aeeg "D"fddc|"G"B^cdB "A"cA A2 :|
%%%%%%%%%%%%%%%%%%%%%%%%%%%%%%%%%%%%%%%%%%%
